icon-themes/sifr_svg/cmd/lc_diagramdata.svg

<svg viewBox="0 0 24 24" xmlns="http://www.w3.org/2000/svg"><path d="m2 5v15h9.1875c-.11725-.313967-.1875-.646725-.1875-1v-1h-1v-3h1v-1h-1v-3h1c0-.353275.07025-.686033.1875-1h-1.1875v-3h4v.5273438c.613443-.2320938 1.284997-.3924231 2-.46875v-.0585938h1 3v.5273438c.372085.1407769.728256.3006252 1.050781.4941406.349344.2096064.669181.4615808.949219.7441406v-3.765625zm2 2h4v3h-4zm13 1a5 3 0 0 0 -5 3v8a5 3 0 0 0 5 3 5 3 0 0 0 5-3v-8a5 3 0 0 0 -5-3zm0 2a3 1 0 0 1 3 1 3 1 0 0 1 -3 1 3 1 0 0 1 -3-1 3 1 0 0 1 3-1zm-13 1h4v3h-4zm10 2.396484a5 3 0 0 0 3 .603516 5 3 0 0 0 3-.603516v1.603516a3 1 0 0 1 -3 1 3 1 0 0 1 -3-1zm-10 1.603516h4v3h-4zm10 2.396484a5 3 0 0 0 3 .603516 5 3 0 0 0 3-.603516v1.603516a3 1 0 0 1 -3 1 3 1 0 0 1 -3-1z" fill="#555753"/></svg>

<svg xmlns="http://www.w3.org/2000/svg" viewBox="0 0 24 24">
  <path
     style="fill:#555753"
     d="M 2 5 L 2 20 L 11.1875 20 C 11.07025 19.686033 11 19.353275 11 19 L 11 18 L 10 18 L 10 15 L 11 15 L 11 14 L 10 14 L 10 11 L 11 11 C 11 10.646725 11.07025 10.313967 11.1875 10 L 10 10 L 10 7 L 14 7 L 14 7.5273438 C 14.613443 7.29525 15.284997 7.1349207 16 7.0585938 L 16 7 L 17 7 L 20 7 L 20 7.5273438 C 20.372085 7.6681207 20.728256 7.827969 21.050781 8.0214844 C 21.400125 8.2310908 21.719962 8.4830652 22 8.765625 L 22 5 L 2 5 z M 4 7 L 8 7 L 8 10 L 4 10 L 4 7 z M 17 8 A 5 3 0 0 0 12 11 L 12 19 A 5 3 0 0 0 17 22 A 5 3 0 0 0 22 19 L 22 11 A 5 3 0 0 0 17 8 z M 17 10 A 3 1 0 0 1 20 11 A 3 1 0 0 1 17 12 A 3 1 0 0 1 14 11 A 3 1 0 0 1 17 10 z M 4 11 L 8 11 L 8 14 L 4 14 L 4 11 z M 14 13.396484 A 5 3 0 0 0 17 14 A 5 3 0 0 0 20 13.396484 L 20 15 A 3 1 0 0 1 17 16 A 3 1 0 0 1 14 15 L 14 13.396484 z M 4 15 L 8 15 L 8 18 L 4 18 L 4 15 z M 14 17.396484 A 5 3 0 0 0 17 18 A 5 3 0 0 0 20 17.396484 L 20 19 A 3 1 0 0 1 17 20 A 3 1 0 0 1 14 19 L 14 17.396484 z "
     />
</svg>
